client/resources/iconsets/breeze/src/svg/16x16/icon_remove_favorites.svg

<svg xmlns="http://www.w3.org/2000/svg" width="16" height="16" viewBox="0 0 16 16">
 <path style="fill:#6d6d70"
       d="M 8 1 L 6 6 L 1 6 L 5 9.7636719 L 4 15 L 8 12 L 12 15 L 11 9.7636719 L 15 6 L 10 6 L 8 1 z M 8 5.0390625 L 8.984375 7.5 L 10 7.5 L 11.224609 7.5 L 9.3730469 9.2460938 L 9.7988281 11.474609 L 8 10.125 L 6.2011719 11.474609 L 6.6269531 9.2460938 L 4.7753906 7.5 L 7.015625 7.5 L 8 5.0390625 z "
       />
</svg>

<svg xmlns="http://www.w3.org/2000/svg" width="16" height="16"><path d="M8 1L6 6H1l4 3.764L4 15l4-3 4 3-1-5.236L15 6h-5L8 1zm0 4.039L8.984 7.5H10h1.225L9.373 9.246l.426 2.229L8 10.125l-1.799 1.35.426-2.229L4.775 7.5h2.24L8 5.039z" fill="#6d6d70"/></svg>
